value_images/universal.svg

<svg xmlns="http://www.w3.org/2000/svg" width="200" height="200" xml:space="preserve" style="fill-rule:evenodd;clip-rule:evenodd;stroke-linejoin:round;stroke-miterlimit:2">
    <path d="M100 3.75C100 1.68 98.32 0 96.25 0H3.75C1.68 0 0 1.68 0 3.75v92.5C0 98.32 1.68 100 3.75 100h92.5c2.07 0 3.75-1.68 3.75-3.75V3.75z" style="fill:#222" transform="scale(2)"/>
    <path d="M95 7.5A2.5 2.5 0 0 0 92.5 5h-85A2.5 2.5 0 0 0 5 7.5v85A2.5 2.5 0 0 0 7.5 95h85a2.5 2.5 0 0 0 2.5-2.5v-85z" style="fill:#048cf4" transform="scale(2)"/>
    <path d="M1201.11 1103.02c-8.32 0-16.64.21-21.4.65-54.6 5.05-102.29 24.43-144.3 58.7-9.04 7.38-26.84 25.16-34.48 34.43-33.87 41.1-53.458 88.47-58.875 142.24-1.099 10.9-1.258 34.72-.281 45.31 5.118 55.44 25.142 103.94 60.376 146.25 2.91 3.5 9.59 10.6 15.18 16.19 13.96 13.96 24.76 22.86 40.73 33.47 36.1 24 79.48 38.9 122.48 42.02 4.24.31 8.86.62 10.27.72 6.02.44 25.59-.2 34.27-1 32.49-2.99 62.78-11.61 92.12-26.23 76.24-37.98 129.4-111.5 141.28-195.35 2-14.1 2.64-23.15 2.63-37.94-.05-29.15-4.26-55.07-13.45-82.53-10.26-30.68-26.11-58.79-47.6-84.59-6.72-8.08-23.42-24.79-31.35-31.37-42.62-35.36-90.71-55.19-146.2-60.32-4.76-.44-13.08-.65-21.4-.65zm-60.74 40.88c-13 14.22-27.23 32.89-38.11 50.9-5.28 8.73-13.22 23.91-17.91 34.26-.78 1.71-1.48 3.23-2.07 4.46-.3-.12-.43-.14-.78-.28-2.2-.89-5.33-2.3-8.76-3.9-6.88-3.21-15.18-7.35-21.2-10.71-4.3-2.4-9.4-5.39-13.45-7.87-1.7-1.04-3.06-1.92-4.24-2.68.56-.64 1.01-1.22 1.73-1.96 18.53-19.29 38.15-33.98 61.49-46.09 12.79-6.63 28.95-12.11 43.3-16.13zm121.31.06c34.9 9.64 69.27 27.91 94.97 52.34 4.33 4.12 7.96 7.72 10.43 10.32.57.6.85.91 1.29 1.4-1.24.79-2.64 1.73-4.35 2.79-4.05 2.5-8.94 5.43-12.4 7.36-2.96 1.66-9.7 5.13-14.72 7.59-5.02 2.47-11.75 5.56-14.63 6.76l-2.34 1-.67-1.56c-3.58-8.04-14.24-28.81-18.02-35.1-11.36-18.93-25.68-37.63-39.56-52.9zm-76.67.28c.03 2.93.08 6.05.11 10.49.07 11.21.11 26.68.11 43.69v58.26h-.89c-12.17-.19-35.87-3.46-52.51-7.31-5.97-1.38-11.62-2.87-15.73-4.07-1.46-.43-2.42-.78-3.41-1.12.65-1.48 1.51-3.34 2.51-5.47 2.16-4.56 4.9-10.01 7.03-13.95 13.45-24.88 27.39-44.29 46.49-64.67 2.82-3.01 8.24-8.33 12.94-12.78 1.28-1.21 2.23-2.04 3.35-3.07zm32.2 0c.72.66 1.27 1.11 2.06 1.84 3.9 3.63 8.42 7.94 11 10.6 20.28 20.99 35.5 41.78 49.54 67.69 2.01 3.69 4.74 9.27 6.98 14.01 1.07 2.26 2.04 4.28 2.73 5.85-1.13.38-2.33.76-4.02 1.23-18.6 5.26-39.62 9.12-59.26 10.78-3.26.27-7.6.49-9.26.5v-58.37c0-19.14.09-34.61.17-45.26.03-3.88.02-6.33.06-8.87zm-203.51 89.11c.8.49 1.54.94 2.51 1.57 15.97 10.36 35.8 20.78 53.01 27.89.99.41 1.23.58 1.79.84-.4 1.3-.71 2.34-1.4 4.58-7.51 24.44-12.74 53.88-13.91 78.62l-41.21.12-40.856.11.118-1.74c.389-6.62 1.523-15.36 3.174-24.32 3.912-21.22 11.577-43.41 21.489-62.5 4.425-8.52 11.375-19.67 15.285-25.17zm374.64.17c15.99 23.65 27.35 47.6 33.88 73.71 3.3 13.21 6.15 32.35 6.24 39.85h-40.62c-12.18 0-23.27 0-31.36-.06a995.3 995.3 0 0 1-9.6-.11c-.21-.01-.3 0-.5 0v-.06c0-11.57-3.21-35.32-7.03-52.9-1.81-8.32-6.21-24.8-8.14-30.3.59-.27 1.11-.54 1.83-.84 17.07-7.05 37.07-17.59 52.96-27.89.9-.59 1.59-.96 2.34-1.4zm-86.16 36.82c.97-.31 1.24.22 3.13 6.23 6.5 20.63 11.82 50.27 12.47 69.47l.15 4.37-52.01.13c-41.33.1-52.05 0-52.25-.51-.13-.36-.19-14.97-.12-32.48l.14-31.84 5.13-.37c25.71-1.86 44.12-4.64 63.81-9.62 6.93-1.76 15.88-4.22 19.55-5.38zm-200.71 3.86c24.57 7.58 51.4 12.58 81.42 14.68l2.07.16v57.81l-48.38.12c-16.21.04-29.26.06-38.23 0-4.48-.03-7.93-.12-10.27-.17-.1-.01-.12 0-.22 0 .06-1.22.15-2.51.28-4.25.35-4.34.93-9.95 1.56-15.06 1.96-15.9 6.23-35.94 10.61-49.83.66-2.09.87-2.67 1.16-3.46zm-127.836 104.68h81.866c.15 1.73.53 6.62.83 10.83 1.69 23.24 6.23 47.42 13.17 70.25l.84 2.67c-1.08.46-2.28 1-3.63 1.57-16.2 6.85-38.03 18.52-51.28 27.4-.65.44-1.21.79-1.79 1.17-.15-.21-.22-.27-.39-.51-1.3-1.81-3.09-4.49-5.02-7.59-3.86-6.19-8.346-14.04-11.38-20.08-12.511-24.93-21.597-58-23.098-83.98l-.118-1.73zm114.056 0 48.49.11 48.78.17v57.75l-2.07.17c-29.54 2.07-51.97 5.91-77.67 13.34l-2.51.73c-.7.19-1.49.39-2.07.55-.28-.83-.54-1.6-.89-2.79-1.08-3.56-2.47-8.46-3.75-13.61-4.24-17.11-7.15-36.41-8.2-54.19l-.11-2.23zm226.83 0-.11 2.24c-1.32 22.41-5.4 45.63-11.83 67.51-.44 1.48-.69 2.41-.95 3.18-.17-.05-.13-.05-.34-.11-23.51-7.47-52.12-12.59-81.68-14.62l-2.35-.17v-57.81l48.77-.11 48.49-.11zm32.14 0h81.86c-.04 1.45-.29 5.26-.67 8.59-4.33 37.53-16.4 70.89-36.83 101.78-.91 1.38-1.69 2.49-2.4 3.52-.33-.22-.58-.37-.94-.62-13.63-9.15-35.92-21.08-52.18-27.95-1.34-.57-2.54-1.11-3.62-1.57l.83-2.67c7.12-23.4 12.23-51.28 13.45-73.66.15-2.73.37-5.93.5-7.42zm-161.43 90.4v62.6c0 15.95-.07 30.87-.11 41.52-.02 4.64-.03 7.96-.05 10.99-.05-.04-.08-.07-.12-.11-3.22-2.97-7.33-6.87-11.1-10.66-21.99-22.06-39.76-46.59-54.13-74.66-1.85-3.63-4.16-8.5-6.02-12.55-.79-1.72-1.48-3.16-2.02-4.41.46-.15.66-.27 1.24-.45 3.01-.91 7.65-2.15 13.83-3.68 17.71-4.4 39.67-7.73 55.02-8.42l3.46-.17zm31.75 0 3.35.17c9.42.44 23.02 2.01 34.99 4.12 7.35 1.3 17.1 3.54 24.94 5.53 3.91 1 7.37 1.93 9.76 2.67.25.08.34.1.56.17-.72 1.68-1.79 4.07-3.4 7.54-15.55 33.63-39.6 66.68-66.68 91.79-1.22 1.13-2.21 2.03-3.29 3.02-.02-.68-.05-.63-.06-1.46-.12-8.17-.17-24.03-.17-54.07v-59.48zm-135.65 23.6c.38.77.65 1.29 1.45 3.13 13.6 31.11 33.46 60.99 56.02 86.37-4.03-1.19-8.55-2.61-11.99-3.79-27.77-9.55-53.52-24.43-75.89-43.92-1.72-1.5-6.78-6.46-11.27-10.93-2.2-2.19-4.27-4.28-5.8-5.86 1.67-1.1 3.84-2.48 6.52-4.08 5.73-3.41 13.08-7.56 19.37-10.82 3.56-1.84 8.92-4.44 13.67-6.64 3.78-1.75 6.25-2.79 7.92-3.46zm239.55 0c2.9 1.11 8.14 3.44 14.73 6.7 7.49 3.7 15.68 8.03 21.32 11.32 5.64 3.29 9.41 5.53 11.49 6.98a230.35 230.35 0 0 1-4.35 4.52c-3.45 3.46-7.59 7.44-10.32 9.93-24.82 22.67-57.12 39.53-89.57 48.83 22.33-25.37 41.73-54.25 55.25-85.15.81-1.84 1.06-2.36 1.45-3.13z" style="fill:#222;fill-rule:nonzero" transform="translate(-217.796 -272.54) scale(.26458)"/>
    <path d="M2.75 70v25c0 5.817 4.683 1.25 10.5 1.25h73.5c5.817 0 10.5 4.567 10.5-1.25V70H2.75z" style="fill:#222;fill-rule:nonzero" transform="scale(2)"/>
    <g style="font-weight:700;font-size:28.1094px;line-height:1.25;font-family:sans-serif;-inkscape-font-specification:'sans-serif Bold';letter-spacing:0;word-spacing:0;fill:#fee;fill-opacity:1;stroke-width:.702735">
        <path d="M10.63 127.486h5.284v12.284q0 2.54.823 3.637.837 1.085 2.718 1.085 1.894 0 2.717-1.084.838-1.099.838-3.638v-12.284h5.284v12.284q0 4.351-2.182 6.479-2.183 2.127-6.657 2.127-4.46 0-6.643-2.127-2.183-2.128-2.183-6.479zm22.825 0h5.901l7.453 14.055v-14.055h5.01v20.492h-5.902l-7.453-14.055v14.055h-5.01zm23.525 0h5.284v20.492H56.98zm8.015 0h5.312l5.435 15.125 5.422-15.125h5.311l-7.59 20.492h-6.3zm24.198 0h14.26v3.994h-8.976v3.816h8.441v3.994h-8.44v4.694h9.278v3.994H89.193zm26.709 9.086q1.661 0 2.375-.617.727-.618.727-2.032 0-1.4-.727-2.004-.714-.603-2.375-.603h-2.223v5.256zm-2.223 3.651v7.755h-5.284v-20.492h8.07q4.05 0 5.93 1.359 1.894 1.359 1.894 4.296 0 2.031-.989 3.335-.974 1.304-2.95 1.922 1.084.247 1.935 1.125.864.865 1.743 2.635l2.868 5.82h-5.627l-2.498-5.092q-.755-1.537-1.537-2.1-.769-.563-2.059-.563zm30.621-12.092v4.337q-1.688-.754-3.294-1.139-1.606-.384-3.033-.384-1.894 0-2.8.522-.906.521-.906 1.62 0 .823.604 1.29.617.452 2.223.782l2.251.453q3.418.686 4.859 2.086 1.441 1.4 1.441 3.98 0 3.39-2.017 5.051-2.004 1.647-6.136 1.647-1.949 0-3.911-.37-1.963-.371-3.926-1.099v-4.46q1.963 1.043 3.788 1.578 1.84.522 3.542.522 1.729 0 2.648-.577.92-.576.92-1.647 0-.96-.631-1.482-.618-.522-2.485-.933l-2.045-.453q-3.074-.66-4.502-2.1-1.413-1.442-1.413-3.885 0-3.06 1.976-4.707 1.977-1.647 5.682-1.647 1.689 0 3.473.26 1.784.247 3.692.755zm5.984-.645h14.26v3.994h-8.975v3.816h8.44v3.994h-8.44v4.694h9.278v3.994h-14.563zm19.202 0h5.284v16.498h9.279v3.994h-14.563zm17.912 0h5.284v16.498h9.278v3.994h-14.562z" style="stroke-width:.702735" transform="matrix(.94078 0 0 1.06295 0 20)" aria-label="UNIVERSELL"/>
    </g>
</svg>

<?xml version="1.0" encoding="UTF-8" standalone="no"?>
<!DOCTYPE svg PUBLIC "-//W3C//DTD SVG 1.1//EN" "http://www.w3.org/Graphics/SVG/1.1/DTD/svg11.dtd">
<svg width="200" height="200" viewBox="0 0 200 200" version="1.1" xmlns="http://www.w3.org/2000/svg" xmlns:xlink="http://www.w3.org/1999/xlink" xml:space="preserve" xmlns:serif="http://www.serif.com/" style="fill-rule:evenodd;clip-rule:evenodd;stroke-linejoin:round;stroke-miterlimit:2;">
    <g id="Universal" transform="matrix(2,0,0,2,0,0)">
        <path id="rect5322" d="M100,3.75C100,1.68 98.32,0 96.25,0L3.75,0C1.68,0 0,1.68 0,3.75L0,96.25C0,98.32 1.68,100 3.75,100L96.25,100C98.32,100 100,98.32 100,96.25L100,3.75Z" style="fill:rgb(34,34,34);"/>
        <path id="rect5324" d="M95,7.5C95,6.12 93.88,5 92.5,5L7.5,5C6.12,5 5,6.12 5,7.5L5,92.5C5,93.88 6.12,95 7.5,95L92.5,95C93.88,95 95,93.88 95,92.5L95,7.5Z" style="fill:rgb(4,140,244);"/>
        <g id="path4806-0" transform="matrix(0.132292,0,0,0.132292,-108.898,-136.27)">
            <path d="M1201.11,1103.02C1192.79,1103.02 1184.47,1103.23 1179.71,1103.67C1125.11,1108.72 1077.42,1128.1 1035.41,1162.37C1026.37,1169.75 1008.57,1187.53 1000.93,1196.8C967.06,1237.9 947.472,1285.27 942.055,1339.04C940.956,1349.94 940.797,1373.76 941.774,1384.35C946.892,1439.79 966.916,1488.29 1002.15,1530.6C1005.06,1534.1 1011.74,1541.2 1017.33,1546.79C1031.29,1560.75 1042.09,1569.65 1058.06,1580.26C1094.16,1604.26 1137.54,1619.16 1180.54,1622.28C1184.78,1622.59 1189.4,1622.9 1190.81,1623C1196.83,1623.44 1216.4,1622.8 1225.08,1622C1257.57,1619.01 1287.86,1610.39 1317.2,1595.77C1393.44,1557.79 1446.6,1484.27 1458.48,1400.42C1460.48,1386.32 1461.12,1377.27 1461.11,1362.48C1461.06,1333.33 1456.85,1307.41 1447.66,1279.95C1437.4,1249.27 1421.55,1221.16 1400.06,1195.36C1393.34,1187.28 1376.64,1170.57 1368.71,1163.99C1326.09,1128.63 1278,1108.8 1222.51,1103.67C1217.75,1103.23 1209.43,1103.02 1201.11,1103.02L1201.11,1103.02ZM1140.37,1143.9C1127.37,1158.12 1113.14,1176.79 1102.26,1194.8C1096.98,1203.53 1089.04,1218.71 1084.35,1229.06C1083.57,1230.77 1082.87,1232.29 1082.28,1233.52C1081.98,1233.4 1081.85,1233.38 1081.5,1233.24C1079.3,1232.35 1076.17,1230.94 1072.74,1229.34C1065.86,1226.13 1057.56,1221.99 1051.54,1218.63C1047.24,1216.23 1042.14,1213.24 1038.09,1210.76C1036.39,1209.72 1035.03,1208.84 1033.85,1208.08C1034.41,1207.44 1034.86,1206.86 1035.58,1206.12C1054.11,1186.83 1073.73,1172.14 1097.07,1160.03C1109.86,1153.4 1126.02,1147.92 1140.37,1143.9L1140.37,1143.9ZM1261.68,1143.96C1296.58,1153.6 1330.95,1171.87 1356.65,1196.3C1360.98,1200.42 1364.61,1204.02 1367.08,1206.62C1367.65,1207.22 1367.93,1207.53 1368.37,1208.02C1367.13,1208.81 1365.73,1209.75 1364.02,1210.81C1359.97,1213.31 1355.08,1216.24 1351.62,1218.17C1348.66,1219.83 1341.92,1223.3 1336.9,1225.76C1331.88,1228.23 1325.15,1231.32 1322.27,1232.52L1319.93,1233.52L1319.26,1231.96C1315.68,1223.92 1305.02,1203.15 1301.24,1196.86C1289.88,1177.93 1275.56,1159.23 1261.68,1143.96ZM1185.01,1144.24C1185.04,1147.17 1185.09,1150.29 1185.12,1154.73C1185.19,1165.94 1185.23,1181.41 1185.23,1198.42L1185.23,1256.68L1184.34,1256.68C1172.17,1256.49 1148.47,1253.22 1131.83,1249.37C1125.86,1247.99 1120.21,1246.5 1116.1,1245.3C1114.64,1244.87 1113.68,1244.52 1112.69,1244.18C1113.34,1242.7 1114.2,1240.84 1115.2,1238.71C1117.36,1234.15 1120.1,1228.7 1122.23,1224.76C1135.68,1199.88 1149.62,1180.47 1168.72,1160.09C1171.54,1157.08 1176.96,1151.76 1181.66,1147.31C1182.94,1146.1 1183.89,1145.27 1185.01,1144.24ZM1217.21,1144.24C1217.93,1144.9 1218.48,1145.35 1219.27,1146.08C1223.17,1149.71 1227.69,1154.02 1230.27,1156.68C1250.55,1177.67 1265.77,1198.46 1279.81,1224.37C1281.82,1228.06 1284.55,1233.64 1286.79,1238.38C1287.86,1240.64 1288.83,1242.66 1289.52,1244.23C1288.39,1244.61 1287.19,1244.99 1285.5,1245.46C1266.9,1250.72 1245.88,1254.58 1226.24,1256.24C1222.98,1256.51 1218.64,1256.73 1216.98,1256.74L1216.98,1198.37C1216.98,1179.23 1217.07,1163.76 1217.15,1153.11C1217.18,1149.23 1217.17,1146.78 1217.21,1144.24L1217.21,1144.24ZM1013.7,1233.35C1014.5,1233.84 1015.24,1234.29 1016.21,1234.92C1032.18,1245.28 1052.01,1255.7 1069.22,1262.81C1070.21,1263.22 1070.45,1263.39 1071.01,1263.65C1070.61,1264.95 1070.3,1265.99 1069.61,1268.23C1062.1,1292.67 1056.87,1322.11 1055.7,1346.85L1014.49,1346.97L973.634,1347.08L973.752,1345.34C974.141,1338.72 975.275,1329.98 976.926,1321.02C980.838,1299.8 988.503,1277.61 998.415,1258.52C1002.84,1250 1009.79,1238.85 1013.7,1233.35L1013.7,1233.35ZM1388.34,1233.52C1404.33,1257.17 1415.69,1281.12 1422.22,1307.23C1425.52,1320.44 1428.37,1339.58 1428.46,1347.08L1387.84,1347.08C1375.66,1347.08 1364.57,1347.08 1356.48,1347.02C1352.44,1346.99 1349.15,1346.95 1346.88,1346.91C1346.67,1346.9 1346.58,1346.91 1346.38,1346.91C1346.38,1346.88 1346.38,1346.87 1346.38,1346.85C1346.38,1335.28 1343.17,1311.53 1339.35,1293.95C1337.54,1285.63 1333.14,1269.15 1331.21,1263.65C1331.8,1263.38 1332.32,1263.11 1333.04,1262.81C1350.11,1255.76 1370.11,1245.22 1386,1234.92C1386.9,1234.33 1387.59,1233.96 1388.34,1233.52L1388.34,1233.52ZM1302.18,1270.34C1303.15,1270.03 1303.42,1270.56 1305.31,1276.57C1311.81,1297.2 1317.13,1326.84 1317.78,1346.04L1317.93,1350.41L1265.92,1350.54C1224.59,1350.64 1213.87,1350.54 1213.67,1350.03C1213.54,1349.67 1213.48,1335.06 1213.55,1317.55L1213.69,1285.71L1218.82,1285.34C1244.53,1283.48 1262.94,1280.7 1282.63,1275.72C1289.56,1273.96 1298.51,1271.5 1302.18,1270.34L1302.18,1270.34ZM1101.47,1274.2C1126.04,1281.78 1152.87,1286.78 1182.89,1288.88L1184.96,1289.04L1184.96,1346.85L1136.58,1346.97C1120.37,1347.01 1107.32,1347.03 1098.35,1346.97C1093.87,1346.94 1090.42,1346.85 1088.08,1346.8C1087.98,1346.79 1087.96,1346.8 1087.86,1346.8C1087.92,1345.58 1088.01,1344.29 1088.14,1342.55C1088.49,1338.21 1089.07,1332.6 1089.7,1327.49C1091.66,1311.59 1095.93,1291.55 1100.31,1277.66C1100.97,1275.57 1101.18,1274.99 1101.47,1274.2L1101.47,1274.2ZM973.634,1378.88L1055.5,1378.88C1055.65,1380.61 1056.03,1385.5 1056.33,1389.71C1058.02,1412.95 1062.56,1437.13 1069.5,1459.96L1070.34,1462.63C1069.26,1463.09 1068.06,1463.63 1066.71,1464.2C1050.51,1471.05 1028.68,1482.72 1015.43,1491.6C1014.78,1492.04 1014.22,1492.39 1013.64,1492.77C1013.49,1492.56 1013.42,1492.5 1013.25,1492.26C1011.95,1490.45 1010.16,1487.77 1008.23,1484.67C1004.37,1478.48 999.884,1470.63 996.85,1464.59C984.339,1439.66 975.253,1406.59 973.752,1380.61L973.634,1378.88ZM1087.69,1378.88L1136.18,1378.99L1184.96,1379.16L1184.96,1436.91L1182.89,1437.08C1153.35,1439.15 1130.92,1442.99 1105.22,1450.42L1102.71,1451.15C1102.01,1451.34 1101.22,1451.54 1100.64,1451.7C1100.36,1450.87 1100.1,1450.1 1099.75,1448.91C1098.67,1445.35 1097.28,1440.45 1096,1435.3C1091.76,1418.19 1088.85,1398.89 1087.8,1381.11L1087.69,1378.88ZM1314.52,1378.88L1314.41,1381.12C1313.09,1403.53 1309.01,1426.75 1302.58,1448.63C1302.14,1450.11 1301.89,1451.04 1301.63,1451.81C1301.46,1451.76 1301.5,1451.76 1301.29,1451.7C1277.78,1444.23 1249.17,1439.11 1219.61,1437.08L1217.26,1436.91L1217.26,1407.9L1217.26,1379.1L1266.03,1378.99L1314.52,1378.88ZM1346.66,1378.88L1428.52,1378.88C1428.48,1380.33 1428.23,1384.14 1427.85,1387.47C1423.52,1425 1411.45,1458.36 1391.02,1489.25C1390.11,1490.63 1389.33,1491.74 1388.62,1492.77C1388.29,1492.55 1388.04,1492.4 1387.68,1492.15C1374.05,1483 1351.76,1471.07 1335.5,1464.2C1334.16,1463.63 1332.96,1463.09 1331.88,1462.63L1332.71,1459.96C1339.83,1436.56 1344.94,1408.68 1346.16,1386.3C1346.31,1383.57 1346.53,1380.37 1346.66,1378.88ZM1185.23,1469.28L1185.23,1531.88C1185.23,1547.83 1185.16,1562.75 1185.12,1573.4C1185.1,1578.04 1185.09,1581.36 1185.07,1584.39C1185.02,1584.35 1184.99,1584.32 1184.95,1584.28C1181.73,1581.31 1177.62,1577.41 1173.85,1573.62C1151.86,1551.56 1134.09,1527.03 1119.72,1498.96C1117.87,1495.33 1115.56,1490.46 1113.7,1486.41C1112.91,1484.69 1112.22,1483.25 1111.68,1482C1112.14,1481.85 1112.34,1481.73 1112.92,1481.55C1115.93,1480.64 1120.57,1479.4 1126.75,1477.87C1144.46,1473.47 1166.42,1470.14 1181.77,1469.45L1185.23,1469.28ZM1216.98,1469.28L1220.33,1469.45C1229.75,1469.89 1243.35,1471.46 1255.32,1473.57C1262.67,1474.87 1272.42,1477.11 1280.26,1479.1C1284.17,1480.1 1287.63,1481.03 1290.02,1481.77C1290.27,1481.85 1290.36,1481.87 1290.58,1481.94C1289.86,1483.62 1288.79,1486.01 1287.18,1489.48C1271.63,1523.11 1247.58,1556.16 1220.5,1581.27C1219.28,1582.4 1218.29,1583.3 1217.21,1584.29C1217.19,1583.61 1217.16,1583.66 1217.15,1582.83C1217.03,1574.66 1216.98,1558.8 1216.98,1528.76L1216.98,1469.28ZM1081.33,1492.88C1081.71,1493.65 1081.98,1494.17 1082.78,1496.01C1096.38,1527.12 1116.24,1557 1138.8,1582.38C1134.77,1581.19 1130.25,1579.77 1126.81,1578.59C1099.04,1569.04 1073.29,1554.16 1050.92,1534.67C1049.2,1533.17 1044.14,1528.21 1039.65,1523.74C1037.45,1521.55 1035.38,1519.46 1033.85,1517.88C1035.52,1516.78 1037.69,1515.4 1040.37,1513.8C1046.1,1510.39 1053.45,1506.24 1059.74,1502.98C1063.3,1501.14 1068.66,1498.54 1073.41,1496.34C1077.19,1494.59 1079.66,1493.55 1081.33,1492.88ZM1320.88,1492.88C1323.78,1493.99 1329.02,1496.32 1335.61,1499.58C1343.1,1503.28 1351.29,1507.61 1356.93,1510.9C1362.57,1514.19 1366.34,1516.43 1368.42,1517.88C1367.27,1519.1 1365.77,1520.69 1364.07,1522.4C1360.62,1525.86 1356.48,1529.84 1353.75,1532.33C1328.93,1555 1296.63,1571.86 1264.18,1581.16C1286.51,1555.79 1305.91,1526.91 1319.43,1496.01C1320.24,1494.17 1320.49,1493.65 1320.88,1492.88Z" style="fill:rgb(34,34,34);fill-rule:nonzero;"/>
        </g>
        <path id="path5326" d="M2.75,70L2.75,95C2.75,100.817 7.433,96.25 13.25,96.25L86.75,96.25C92.567,96.25 97.25,100.817 97.25,95L97.25,70L2.75,70Z" style="fill:rgb(34,34,34);fill-rule:nonzero;"/>
        <g transform="matrix(0.466008,0,0,0.501084,16.5445,-0.166712)">
            <g id="Text" transform="matrix(31.9308,0,0,31.9308,-22.7041,177.434)">
                <path d="M0.271,-0.181C0.297,-0.148 0.332,-0.132 0.376,-0.132C0.42,-0.132 0.455,-0.148 0.481,-0.181C0.506,-0.213 0.519,-0.257 0.519,-0.313L0.519,-0.699L0.675,-0.699L0.675,-0.308C0.675,-0.207 0.647,-0.129 0.591,-0.075C0.535,-0.02 0.463,0.007 0.376,0.007C0.289,0.007 0.217,-0.02 0.161,-0.075C0.104,-0.13 0.076,-0.207 0.076,-0.308L0.076,-0.699L0.232,-0.699L0.232,-0.313C0.232,-0.257 0.245,-0.213 0.271,-0.181Z" style="fill:rgb(255,238,238);fill-rule:nonzero;"/>
            </g>
            <g transform="matrix(31.9308,0,0,31.9308,1.27592,177.434)">
                <path d="M0.575,-0.699L0.731,-0.699L0.731,0L0.575,0L0.242,-0.438L0.242,0L0.086,0L0.086,-0.699L0.232,-0.699L0.575,-0.249L0.575,-0.699Z" style="fill:rgb(255,238,238);fill-rule:nonzero;"/>
            </g>
            <g transform="matrix(31.9308,0,0,31.9308,27.3634,177.434)">
                <rect x="0.086" y="-0.699" width="0.156" height="0.699" style="fill:rgb(255,238,238);fill-rule:nonzero;"/>
            </g>
            <g transform="matrix(31.9308,0,0,31.9308,37.8367,177.434)">
                <path d="M0.344,-0.254L0.522,-0.699L0.691,-0.699L0.41,0L0.278,0L-0.003,-0.699L0.166,-0.699L0.344,-0.254Z" style="fill:rgb(255,238,238);fill-rule:nonzero;"/>
            </g>
            <g transform="matrix(31.9308,0,0,31.9308,59.8051,177.434)">
                <path d="M0.59,-0.699L0.59,-0.56L0.242,-0.56L0.242,-0.416L0.555,-0.416L0.555,-0.283L0.242,-0.283L0.242,-0.138L0.601,-0.138L0.601,0L0.086,0L0.086,-0.699L0.59,-0.699Z" style="fill:rgb(255,238,238);fill-rule:nonzero;"/>
            </g>
            <g transform="matrix(31.9308,0,0,31.9308,80.6878,177.434)">
                <path d="M0.653,-0.467C0.653,-0.355 0.609,-0.283 0.52,-0.25L0.697,0L0.505,0L0.35,-0.223L0.242,-0.223L0.242,0L0.086,0L0.086,-0.699L0.351,-0.699C0.46,-0.699 0.537,-0.681 0.584,-0.644C0.63,-0.607 0.653,-0.548 0.653,-0.467ZM0.356,-0.358C0.409,-0.358 0.446,-0.367 0.465,-0.384C0.484,-0.401 0.494,-0.429 0.494,-0.467C0.494,-0.504 0.484,-0.53 0.464,-0.544C0.444,-0.558 0.409,-0.565 0.359,-0.565L0.242,-0.565L0.242,-0.358L0.356,-0.358Z" style="fill:rgb(255,238,238);fill-rule:nonzero;"/>
            </g>
            <g transform="matrix(31.9308,0,0,31.9308,103.901,177.434)">
                <path d="M0.311,-0.578C0.285,-0.578 0.265,-0.572 0.25,-0.56C0.234,-0.547 0.227,-0.531 0.227,-0.51C0.227,-0.49 0.236,-0.474 0.255,-0.462C0.273,-0.45 0.315,-0.436 0.382,-0.42C0.448,-0.403 0.499,-0.379 0.536,-0.346C0.573,-0.313 0.591,-0.266 0.591,-0.203C0.591,-0.14 0.568,-0.09 0.521,-0.051C0.473,-0.012 0.412,0.008 0.335,0.008C0.224,0.008 0.125,-0.033 0.036,-0.115L0.129,-0.229C0.204,-0.163 0.274,-0.13 0.338,-0.13C0.367,-0.13 0.389,-0.136 0.406,-0.149C0.422,-0.161 0.43,-0.178 0.43,-0.199C0.43,-0.22 0.421,-0.236 0.404,-0.249C0.387,-0.261 0.352,-0.273 0.301,-0.286C0.22,-0.305 0.16,-0.331 0.123,-0.362C0.085,-0.393 0.066,-0.441 0.066,-0.507C0.066,-0.574 0.09,-0.625 0.138,-0.661C0.185,-0.697 0.245,-0.715 0.316,-0.715C0.363,-0.715 0.409,-0.707 0.456,-0.691C0.503,-0.675 0.543,-0.652 0.578,-0.623L0.499,-0.509C0.438,-0.555 0.376,-0.578 0.311,-0.578Z" style="fill:rgb(255,238,238);fill-rule:nonzero;"/>
            </g>
            <g transform="matrix(31.9308,0,0,31.9308,123.999,177.434)">
                <path d="M0.584,0L0.519,-0.151L0.226,-0.151L0.161,0L-0.005,0L0.297,-0.699L0.448,-0.699L0.75,0L0.584,0ZM0.373,-0.491L0.285,-0.288L0.46,-0.288L0.373,-0.491Z" style="fill:rgb(255,238,238);fill-rule:nonzero;"/>
            </g>
            <g transform="matrix(31.9308,0,0,31.9308,147.787,177.434)">
                <path d="M0.086,0L0.086,-0.699L0.242,-0.699L0.242,-0.139L0.54,-0.139L0.54,0L0.086,0Z" style="fill:rgb(255,238,238);fill-rule:nonzero;"/>
            </g>
        </g>
    </g>
</svg>
